X:978
L:1/8
M:2/4
K:Amix
 [A,E]2 [EA]2 |[M:2/2] cA e2 e3 e- | efgf e2 c2 | efe(=c ^c)BAc | BAFA [A,E]2 E2 A2 | e2 e e3 e- | 
 efgf e2 c2 | efe(=c ^c)BAc | BAFA || [EA]2 [EA]2 cB A2 | c2 e2 cBAF | [A,E]2 [EA]2 cB A2 | 
 c2 e2 cBAF | [A,E]2 [EA]2 cBAB | c2 e2 BAFA | [A,E]2 [EA]2 cBAB | c2 ec BA F2 ||

